X: 24
T: Strike home and away
R: jig
M: 6/8
L: 1/8
Z: 2010 John Chambers <jc:trillian.mit.edu>
B: John Johnson ed. "Twenty Four Country Dances", p.84 London 1766
K: G
%%indent 370
|: GAB AFD   | ABc BGE   | cde dcB | AGF G3 :|
|: efg fed   | cde dcB   | ABc BAG | ecB [A3D3] |\
   GAB AFD   | ABc BGE   | cde dcB | AGF G3 :|
|: efe e^d=d | ded d^c=c | cdc cBA | GFE B3 |\
   GAB AFD   | ABc BGE   | cde dcB | AGF G3 :|
